X:8303
T:Abercairney House
C:Niel Gow
O:Scotland
A:Inver (Perth)
B:(n1) Gow Collection of Scottish Dance Music - Oak Publications
R:Strathspey
Z:transcription (livre) : anamnese@caramail.com
F:http://abc.musicaviva.com/tunes/gow-niel/gow-abercairney-house.abc
%Posted April 18th 2002 at abcusers by Eric Forgeot in reply to a
%request for a good Bb major strathspey.
M:C
L:1/8
Q:1/4=120 %tempo exact non connu
K:Bb
B/c/ | d<GB>G dGB<g | c<FA>F cFAf | \
d<GB>G dGB<g | f>d {d}cB/A/{A}G2 G :| d |
g>dgb g<af<g | fadf c>F {d}cB/A/ | \
g>dgb g<af<g | d>c {d}cB/A/{A}G2 Gd |
g>dgb g<af<g | fadf c>F {d}cB/A/ | \
d<GB>G dGB<g | d>c {d}cB/A/{A}G2 G |]
W:
W:
W:  From Musica Viva - http://www.musicaviva.com
W:  the Internet center for free sheet music downloads.
